brandFactory_export/2.Regular/Internet_2Regular.svg

<?xml version="1.0" encoding="UTF-8"?>
<svg width="24px" height="24px" viewBox="0 0 24 24" version="1.1" xmlns="http://www.w3.org/2000/svg" xmlns:xlink="http://www.w3.org/1999/xlink">
    <title>2.Regular/Internet_2Regular</title>
    <g id="Symbols" stroke="none" stroke-width="1" fill="none" fill-rule="evenodd">
        <g id="2.Regular/Internet_2Regular" fill="#5CB615" fill-rule="nonzero">
            <path d="M11.8487395,0.0100840336 C15.6067227,0.0100840336 18.5310924,0.991596639 20.5411765,2.92773109 C22.6285714,4.93781513 23.6840336,7.9394958 23.6840336,11.8453782 C23.6840336,15.7512605 22.6252101,18.7529412 20.5411765,20.7596639 C18.5344538,22.6991597 15.610084,23.6806723 11.8487395,23.6806723 C8.0907563,23.6806723 5.16638655,22.6991597 3.15630252,20.7630252 C1.07226891,18.7529412 0.0168067219,15.7546218 0.0168067219,11.8487395 C0.0168067219,7.94285714 1.07563025,4.94117647 3.15966386,2.93109244 C5.1697479,0.994957983 8.0907563,0.0100840336 11.8487395,0.0100840336 Z M11.1158067,17.132084 L6.90384284,17.1331473 C7.1603982,17.9255147 7.47672121,18.6618867 7.8487395,19.3243697 C8.76168902,20.9512926 9.90643817,21.9439506 11.1166795,22.1737326 L11.1158067,17.132084 Z M16.4171656,17.1331473 L12.4598067,17.132084 L12.4602347,22.1137445 C13.5745859,21.8011394 14.6212862,20.8387383 15.4722689,19.3243697 C15.8442872,18.6618867 16.1606102,17.9255147 16.4171656,17.1331473 Z M21.4128935,17.133253 L17.8214663,17.1329201 C17.5170488,18.1697262 17.1213802,19.1305551 16.6420168,19.9831933 C16.1852465,20.7949536 15.6698087,21.4802123 15.1038274,22.0308454 C18.192065,21.3911327 20.3002325,19.7537808 21.4128935,17.133253 Z M5.50007142,17.1332586 L2.29050849,17.133253 C3.34201425,19.6117658 5.28344953,21.2107783 8.10188254,21.9173587 C7.57933427,21.3877874 7.10283161,20.7405468 6.6789916,19.9831933 C6.19990602,19.1297403 5.80441824,18.1692413 5.50007142,17.1332586 Z M5.02728635,8.6045517 L1.66496972,8.60415512 C1.46271655,9.58670906 1.36134454,10.6683899 1.36134454,11.8487395 C1.36134454,13.3144577 1.51796068,14.6280345 1.83025036,15.7885273 L5.16502468,15.7885715 C4.90530488,14.5334595 4.7697479,13.1964472 4.7697479,11.8252101 C4.7697479,10.7214739 4.85757475,9.63947706 5.02728635,8.6045517 Z M11.1158067,8.60408403 L6.38949413,8.60354643 C6.20822861,9.63032071 6.11428571,10.713905 6.11428571,11.8252101 C6.11428571,13.2080555 6.25974605,14.5479782 6.53791123,15.7889312 L11.1158067,15.788084 L11.1158067,8.60408403 Z M16.9315143,8.60354643 L12.4598067,8.60408403 L12.4598067,15.788084 L16.7830972,15.7889312 C17.0612623,14.5479782 17.2067227,13.2080555 17.2067227,11.8252101 C17.2067227,10.713905 17.1127798,9.63032071 16.9315143,8.60354643 Z M22.0389925,8.60433024 L18.2935574,8.60438354 C18.4633768,9.63921249 18.5512605,10.7211171 18.5512605,11.8252101 C18.5512605,13.1960853 18.4157751,14.5334245 18.1561893,15.788691 L21.8735353,15.7885273 C22.1860918,14.6280345 22.3428571,13.3144577 22.3428571,11.8487395 C22.3428571,10.6685577 22.2414161,9.58691873 22.0389925,8.60433024 Z M8.05245499,1.78511566 L7.86832445,1.83460626 C4.92349255,2.6389403 2.97058775,4.45224846 2.02515586,7.26002129 L5.3002842,7.26004215 C5.62275218,5.93790493 6.08706373,4.72008219 6.6789916,3.66722689 C7.09105556,2.93491756 7.55086482,2.30555902 8.05245499,1.78511566 Z M12.4602347,1.53667568 L12.4598067,7.26008403 L16.6357432,7.25975401 C16.3489536,6.18240483 15.9581054,5.19121873 15.4722689,4.32605042 C14.6212862,2.81168184 13.5745859,1.84928072 12.4602347,1.53667568 Z M15.1598636,1.6724155 L15.1941109,1.70685042 C15.7264874,2.24205042 16.2114286,2.89781513 16.6420168,3.66722689 C17.2337024,4.72126785 17.6978761,5.93858619 18.0203281,7.25972523 L21.6785021,7.26014133 C20.6624552,4.2450573 18.4835828,2.375847 15.1598636,1.6724155 Z M7.8487395,4.32605042 C7.36290299,5.19121873 6.97205477,6.18240483 6.68526522,7.25975401 L11.1158067,7.26008403 L11.1158473,1.47672608 C9.90657922,1.70624647 8.76436797,2.69664128 7.8487395,4.32605042 Z" id="Internet_2Regular"></path>
        </g>
    </g>
</svg>

<svg width="24" height="24" viewBox="0 0 24 24" xmlns="http://www.w3.org/2000/svg"><path d="M11.849.01c3.758 0 6.682.982 8.692 2.918 2.088 2.01 3.143 5.011 3.143 8.917 0 3.906-1.059 6.908-3.143 8.915-2.007 1.94-4.93 2.92-8.692 2.92-3.758 0-6.683-.98-8.693-2.917-2.084-2.01-3.14-5.008-3.14-8.914 0-3.906 1.06-6.908 3.144-8.918C5.17.995 8.09.011 11.849.011zm-.733 17.122l-4.212.001c.256.793.573 1.529.945 2.191.913 1.627 2.057 2.62 3.268 2.85l-.001-5.042zm5.301.001H12.46v4.98c1.115-.312 2.161-1.274 3.012-2.789.372-.662.689-1.398.945-2.19zm4.996 0H17.82a13.702 13.702 0 01-1.179 2.85c-.457.812-.972 1.497-1.538 2.048 3.088-.64 5.196-2.277 6.309-4.898zm-15.913 0H2.29c1.052 2.479 2.993 4.078 5.812 4.784-.523-.53-1-1.176-1.423-1.934a13.746 13.746 0 01-1.179-2.85zm-.473-8.528H1.665c-.202.982-.304 2.063-.304 3.244 0 1.465.157 2.779.47 3.94h3.334a19.634 19.634 0 01-.395-3.964c0-1.104.088-2.186.257-3.22zm6.089 0l-4.727-.001a18.587 18.587 0 00-.275 3.221c0 1.383.146 2.723.424 3.964h4.578V8.603zm5.816-.001H12.46v7.184h4.323c.278-1.24.424-2.58.424-3.963 0-1.111-.094-2.195-.275-3.221zm5.107 0h-3.745c.17 1.035.257 2.117.257 3.221 0 1.371-.135 2.708-.395 3.964h3.718c.312-1.161.469-2.475.469-3.94 0-1.18-.102-2.262-.304-3.245zM8.052 1.785l-.184.05c-2.945.804-4.897 2.617-5.843 5.425H5.3c.323-1.322.787-2.54 1.379-3.593a9.2 9.2 0 011.373-1.882zm4.408-.248V7.26h4.176c-.287-1.078-.678-2.069-1.164-2.934-.85-1.514-1.897-2.477-3.012-2.79zm2.7.135l.034.035a8.985 8.985 0 011.448 1.96c.592 1.054 1.056 2.272 1.378 3.593h3.659c-1.017-3.015-3.195-4.884-6.52-5.588zM7.849 4.326c-.486.865-.877 1.856-1.164 2.934h4.43V1.477c-1.208.23-2.35 1.22-3.266 2.85z" fill="#5CB615" fill-rule="nonzero"/></svg>
